X: 2420
M: C
L: 1/8
K: G
|:\
|:\
(3vBBB B>e dBAG | (3BBB B>e dBAG |\
gg2e g4 | GG2E G4 |\
(3BBB B>e dBAG | (3BBB B>e dBAG |\
gfgd fedc | BdcA G2z2 :|
|:\
cf2e dcBA |[1 Az (D2_E2D2) :|[2 G2g2G2 |]


